X: 1795
T: Soğukkuyu Zeybeği
C: (Anonim)
O: Turkey
F: http://compmusic.upf.edu/node/140
N: nikriz--zeybek--agiraksak----izmir
N: makam= nikriz
N: form= zeybek
N: usul= agiraksak = 9/4
M: 9/4
L: 1/16
K: C _7/8B ^3/4f ^c 
Q: 1/4=96
%%MIDI tuningsystem comma53
F3G A2B2 c2.d2 dcB2 z2d2 d3/2c/B2 B3/2A/G2 d4 z4  | \
w:   | 
F3G A2B2 c2.d2 dcB2 z2d2 d3/2c/B2 B3/2A/G2 G4 z4  | 
w:   | 
F3G A2B2 c2.d2 dcB2 z2d2 d3/2c/B2 B3/2A/G2 d4 z4  | \
w:   | 
F3G A2B2 c2.d2 dcB2 z2d2 d3/2c/B2 B3/2A/G2 G4 z4  | 
w:   | 
f2g2 e2=f2 d2e2 d{e}c{d}.B2 z2d2 d3/2c/B2 B3/2A/G2 d4 z4  | \
w:   | 
.f2.g2 .e2.=f2 .d2.e2 d{e}c{d}.B2 z2d2 d3/2c/B2 B3/2A/G2 G4 z4  | 
w:   | 
f2g2 e2=f2 d2e2 d{e}c{d}.B2 z2d2 d3/2c/B2 B3/2A/G2 d4 z4  | \
w:   | 
.f2.g2 .e2.=f2 .d2.e2 d{e}c{d}.B2 z2d2 d3/2c/B2 B3/2A/G2 G4 z4  | 
w:   | 
G2A_2/4B =c2(3BAB c2(3BAB z2e2 {=f}d2{e}^c2 {d}_7/8B2{c}A2 GABc d4 z4  | 
w:   | 
G2A_2/4B =c2(3BAB c2(3BAB z2e2 {=f}d2{e}^c2 {d}_7/8B2{c}A2 G2F2 {A}G4 z4  | 
w:   | 
G2A_2/4B =c2(3BAB c2(3BAB z2e2 {=f}d2{e}^c2 {d}_7/8B2{c}A2 GABc d4 z4  | 
w:   | 
G2A_2/4B =c2(3BAB c2(3BAB z2e2 {=f}d2{e}^c2 {d}_7/8B2{c}A2 G2F2 {A}G4 z4  | 
w:   | 
fagf egfe d=fed cdef gefd ecdB cABG d4 z4  | 
w:   | 
fagf egfe d=fed cdef gefd ecdB cBAB G4 z4  | 
w:   | 
fagf egfe d=fed cdef gefd ecdB cABG d4 z4  | 
w:   | 
fagf egfe d=fed cdef gefd ecdB cBAB G4 z4  | 
w:   | 
|


